X:43
T:Polska ur Petter Dufvas notbok (Ma6-43)
R:Polska
O:Verkelbäck, Småland
B:Petter Dufvas notbok
S:Petter Dufva
N:Smus Ma6 bild 45
M:3/4
L:1/8
K:A
Acde dc|Bc d2 f2|e2d2 cB|AG A4:|
K:D
|:ef g2 fe|fg a2 A2|Bcde fd|ec d2 D2:|

